X:107
T:New Daniel Cooper. Ru2.107
%%VWML:RutherfordVol2-2249-p54-0
F:http://www.vwml.org/record/RutherfordVol2/2249/p54
B:RUTHERFORD Complete Collection of 200 Country Dances Vol.2; 1759.
Z:vmp.Mike Hicken 2015 www.village-music-project.org.uk
N: The final symbol of dance notation in the original is :|
M:6/8
Q:3/8=100
K:G
|:d3 e2 {ef}g|Tf2e d2f|e2^c B2c|d3d3 :|
|:B2B TB3({AB})|c2c Tc3({Bc})|B2B TB3 ({AB})|d3g3|
B2B TB3({AB})|c2B A2c|B2G A2F|G3G3 :|
W:
W: Cast off one Cu:.|  cast up again :|  The first ?
W:?  ? to the 2d Wo: & turn her.|. the Wo: to the
W: ? Man & turn :| ? the same way again but not
W: ? ? cross over half figure .||.  Right hands
W: & left at top :|
T:So merrily Danced the Quakers. Ru2.108
T:Merrily Danced the Quakers,aka. Ru2.108
L:1/8
B:RUTHERFORD Complete Collection of 200 Country Dances Vol.2; 1759.
Z:vmp.Mike Hicken 2015 www.village-music-project.org.uk
M:6/8
Q:3/8=120
K:G
GAB D2B|A2G FED|GAB D2D|E3G3 :|
|: dcB edc|dcB ABc|dcB efg|B3d3|
dcB efg|(f/g/a)B A2G|Bcd D2D|E3G3 :|
W:
W: The first Cu foot it & turn right Hands .|  foot it &
W: turn Left Hands :|  Cast off one Cu: & right Hands a-
W:cross with the 3d Cu: .|.  Right & Left at top :|.
